public/formular-icons/english/upper-d.svg

<svg style="vertical-align:0" xmlns="http://www.w3.org/2000/svg" width="1.873ex" height="1.545ex" viewBox="0 -683 828 683" xmlns:xlink="http://www.w3.org/1999/xlink"><defs><path id="a" d="M287 628q0 7-57 9-23 0-30 1t-7 9q0 8 4 20t7 15q2 1 199 1 167-1 187-1t40-6q72-17 122-79t51-166q0-156-107-280T444 3l-14-2-194-1H72Q48 0 41 2t-8 9q0 2 3 14 4 16 8 18t23 3q27 0 60 3 14 3 19 12 3 4 72 278t69 289Zm416-159q0 38-11 68t-26 47-37 29-39 16-35 7h-43q-17 0-33 1h-43q-44 0-50-10-2-4-73-288T242 52q0-4 11-4t77-1h19q14 0 24-1 126 0 208 82 36 36 59 84t43 127 20 130Z"/></defs><g stroke="currentColor" fill="currentColor" stroke-width="0"><use data-c="1D437" xlink:href="#a" transform="scale(1 -1)"/></g></svg>

<svg style="vertical-align: 0" xmlns="http://www.w3.org/2000/svg" width="1.873ex" height="1.545ex" role="img" focusable="false" viewBox="0 -683 828 683" xmlns:xlink="http://www.w3.org/1999/xlink"><defs><path id="MJX-38-TEX-I-1D437" d="M287 628Q287 635 230 637Q207 637 200 638T193 647Q193 655 197 667T204 682Q206 683 403 683Q570 682 590 682T630 676Q702 659 752 597T803 431Q803 275 696 151T444 3L430 1L236 0H125H72Q48 0 41 2T33 11Q33 13 36 25Q40 41 44 43T67 46Q94 46 127 49Q141 52 146 61Q149 65 218 339T287 628ZM703 469Q703 507 692 537T666 584T629 613T590 629T555 636Q553 636 541 636T512 636T479 637H436Q392 637 386 627Q384 623 313 339T242 52Q242 48 253 48T330 47Q335 47 349 47T373 46Q499 46 581 128Q617 164 640 212T683 339T703 469Z"></path></defs><g stroke="currentColor" fill="currentColor" stroke-width="0" transform="scale(1,-1)"><g data-mml-node="math"><g data-mml-node="mi"><use data-c="1D437" xlink:href="#MJX-38-TEX-I-1D437"></use></g></g></g></svg>
